X:1
T:Lighten Another’s Care
T:Lighten Another’s Care
T:J. Owen Long
T:J. Owen Long, 1916
T:Public Domain Courtesy of the Cyber Hymnal™
C:J. Owen Long
Z:Public Domain
Z:Courtesy of the Cyber Hymnal™
%%score ( 1 2 ) 3
L:1/8
Q:1/4=97
M:6/8
K:Ab
V:1 treble 
V:2 treble 
V:3 bass 
V:1
 [CE][CE][CE] [DE][DE][DE] | E2 E [DF]2 [FB] | [EA][EG][EA] [EB]2 [Ed] | [Ec]3- [Ec]2 z | %4
w: 1.~Je- sus com- mands you to|go to- day And|light- en an- o- ther’s|care; *|
w: 2.~Je- sus will give you the|vic- tor’s power, So|light- en an- o- ther’s|care; *|
w: 3.~Draw from the fount- ain of|bound- less grace, And|light- en an- o- ther’s|care; *|
 [CE][CE][CE] [DE][DE][DE] | E2 E [DF]2 [FB] | [EA][EG][EA] [Ec]2 [DB] | [CA]3- [CA]2 z || %8
w: Point them to Him as the|Light, the Way, He’ll|al- ways the bur- den|share. *|
w: Give you a bless- ing each|com- ing hour And|help you the cross to|bear. *|
w: Walk in the light of the|Sav- ior’s face, In-|her- it a man- sion|fair. *|
"^Refrain" c4 [=D=B][Ec] | A3- [CA]2 z | F4 [DG][DA] | E3- [CE]2 z | [CE][CE][CE] [DE][DE][DE] | %13
w: Light- en a|care, Tell|* Him in|prayer; Je-|* sus sends hap- pi- ness|
w: |||||
w: |||||
 E2 E [DF]2 [FB] | [EA][EG][EA] [Ec]2 [DB] | [CA]3- [CA]2 z |] %16
w: ev- ery- where, And|light- ens His child- ren’s|care. *|
w: |||
w: |||
V:2
 x6 | E2 E x3 | x6 | x6 | x6 | E2 E x3 | x6 | x6 || (EEE E) x2 | CCD x3 | (DDD D) x2 | CCD x3 | %12
 x6 | E2 E x3 | x6 | x6 |] %16
V:3
 [A,,A,][A,,A,][A,,A,] [B,,G,][B,,G,][B,,G,] | [C,A,]2 [C,A,] [D,A,]2 [D,D] | %2
w: ~ ~ ~ ~ ~ ~|~ ~ ~ ~|
 [E,C][E,B,][E,C] [E,G,]2 [E,B,] | [A,,A,]3- [A,,A,]2 z | %4
w: ~ ~ ~ ~ ~|~ *|
 [A,,A,][A,,A,][A,,A,] [B,,G,][B,,G,][B,,G,] | [C,A,]2 [C,A,] [D,A,]2 [D,D] | %6
w: ~ ~ ~ ~ ~ ~|~ ~ ~ ~|
 [E,C][E,B,][E,C] [E,A,]2 [E,G,] | [A,,A,]3- [A,,A,]2 z || %8
w: ~ ~ ~ ~ ~|~ *|
 [A,,A,][A,,A,][A,,A,] [A,,A,][A,,A,][A,,A,] | [A,,A,][A,,A,][A,,F,] [A,,E,]2 z | %10
w: Je- sus com- mands you to|light- en a care,|
 [D,A,][D,A,][D,A,] [D,A,][D,G,][D,F,] | [A,,A,][A,,A,][A,,F,] [A,,E,]2 z | %12
w: Je- sus com- mands you to|tell Him in prayer;|
 [A,,A,][A,,A,][A,,A,] [B,,G,][B,,G,][B,,G,] | [C,A,]2 [C,A,] [D,A,]2 [D,D] | %14
w: ||
 [E,C][E,B,][E,C] [E,A,]2 [E,G,] | [A,,A,]3- [A,,A,]2 z |] %16
w: ||

